Catalina-light/actions/16/autocorrection.svg

<svg xmlns="http://www.w3.org/2000/svg" width="16" height="16" viewBox="0 0 16 16">
 <defs>
  <style id="current-color-scheme" type="text/css">
   .ColorScheme-Text { color:#5c616c; } .ColorScheme-Highlight { color:#5294e2; }
  </style>
 </defs>
 <path style="fill:currentColor" class="ColorScheme-Text" d="M 11.646484 1 L 7.5625 5.0839844 L 6.9785156 5.6660156 L 4.6464844 8 L 2.8964844 9.75 L 2.3125 10.333984 L 1 11.646484 L 4.3535156 15 L 5.6660156 13.6875 L 6.25 13.103516 L 10.333984 9.0214844 L 10.916016 8.4375 L 15 4.3535156 L 11.646484 1 z M 3.5 2 L 2.96875 2.96875 L 2 3.5 L 2.96875 4.03125 L 3.5 5 L 4.03125 4.03125 L 5 3.5 L 4.03125 2.96875 L 3.5 2 z M 11.646484 2.6777344 L 13.322266 4.3535156 L 10.078125 7.5996094 L 8.4003906 5.921875 L 11.646484 2.6777344 z"/>
</svg>

<svg width="16" height="16" viewBox="0 0 16 16" xmlns="http://www.w3.org/2000/svg">
<defs>
<style id="current-color-scheme" type="text/css">.ColorScheme-Text { color:#5c616c; } .ColorScheme-Highlight { color:#5294e2; }</style>
</defs>
<path class="ColorScheme-Text" d="m11.646 1-4.084 4.084-0.58398 0.58203-2.332 2.334-3.6465 3.6465 3.3535 3.3535 1.8965-1.8965 4.084-4.082 0.58203-0.58398 4.084-4.084-3.3535-3.3535zm-8.1465 1-0.53125 0.96875-0.96875 0.53125 0.96875 0.53125 0.53125 0.96875 0.53125-0.96875 0.96875-0.53125-0.96875-0.53125-0.53125-0.96875zm8.1465 0.67773 1.6758 1.6758-3.2441 3.2461-1.6777-1.6777 3.2461-3.2441z" fill="currentColor"/>
</svg>
